icon/lg/ietf.svg

<?xml version="1.0" encoding="UTF-8"?>
<svg viewBox="0 0 512 281" version="1.1" xmlns="http://www.w3.org/2000/svg" preserveAspectRatio="xMidYMid" height="1em" width="1em">
  <g>
    <path d="M256.960848,84.907269 C258.723873,86.3529493 260.187184,88.0807135 261.826797,89.6321752 L292.662098,120.432217 C280.685284,132.432538 268.696716,144.421106 256.696395,156.39792 C253.417169,153.242106 250.261355,149.96288 247.035019,146.789436 C238.378568,138.115354 229.704487,129.476533 221.065666,120.802452 C233.04248,108.849144 245.007541,96.8840834 256.960848,84.907269 Z M341.586034,84.7485968 C346.399091,89.614545 351.31793,94.3747116 356.148617,99.2230295 L377.304914,120.379326 L377.304914,120.379326 C375.753452,122.265762 373.778864,123.799594 372.121621,125.562618 L350.313006,147.388864 C347.280603,150.350745 344.353982,153.453669 341.268689,156.345029 C332.371291,147.471139 323.450386,138.561987 314.505974,129.617575 C311.438311,126.585173 308.4588,123.464619 305.320616,120.502738 C306.942598,118.598671 308.846665,116.976688 310.60969,115.213663 C320.694191,105.164423 330.725801,95.0622912 340.827933,85.0306808 L341.110017,85.259874 L341.586034,84.7485968 Z M172.018319,85.2775042 L207.596157,120.802452 C197.687958,130.745911 187.762129,140.677617 177.81867,150.597569 C175.861713,152.484005 174.028167,154.511484 172.018319,156.327399 C162.356944,146.754175 152.78372,137.0928 143.157605,127.501946 C141.041975,125.280534 138.626631,123.129644 136.493371,120.802452 L172.018319,85.2775042 Z M299.255811,43.4056678 L334.19896,78.4898592 C322.457216,90.3726456 310.556799,102.11439 298.779794,113.979546 C297.68278,113.035249 296.635321,112.034866 295.64161,110.982404 L268.349988,83.5850005 C266.692745,81.8219758 264.823939,80.3057746 263.360628,78.4898592 C275.102373,66.7363612 286.83824,54.9828633 298.568231,43.2293654 C298.779794,42.8591302 299.079508,43.2293654 299.255811,43.4056678 Z M383.422609,43.0883234 C384.515685,43.9698357 385.432458,45.0805413 386.455012,46.0502049 L418.806515,78.4898592 C407.464389,89.8789987 396.104634,101.250508 384.727248,112.604387 C384.284763,113.124136 383.767903,113.575645 383.193416,113.944286 C381.254089,111.863917 379.19135,109.906959 377.199132,107.879481 L371.333479,102.005082 L371.333479,102.005082 L359.587785,90.273211 C355.673306,86.3607066 351.762212,82.4425605 347.862401,78.5074894 C356.130987,70.1683826 364.487724,61.8292759 372.844461,53.5430598 C376.370511,50.0170104 379.89656,46.4909611 383.422609,43.0883234 Z M75.8100616,82.7211184 C75.5682698,83.077631 75.2906152,83.4084535 74.98144,83.7084122 L51.6918839,107.015599 C49.3646913,109.307531 47.1080197,111.705244 44.6397851,113.926655 C36.1772666,105.393616 27.6442271,96.9310974 19.1640784,88.4156882 C18.4287126,87.7454076 17.7450624,87.0205026 17.1189697,86.2471678 C17.2247512,85.0659413 17.1894907,83.902345 17.1894907,82.7211184 L75.8100616,82.7211184 Z M494.757619,83.3910678 L494.757619,86.2295376 L496.044627,86.2295376 C495.463319,86.9809729 494.814143,87.6773613 494.105299,88.3099067 L477.409456,105.00575 C474.412314,107.950002 471.520953,111.017665 468.43566,113.820874 C459.467741,104.829448 450.476315,95.8380221 441.461382,86.8465962 C440.277439,85.7676939 439.164416,84.6134485 438.129266,83.3910678 L494.757619,83.3910678 Z M214.084088,42.1891808 C214.541517,42.4842385 214.951657,42.846826 215.300575,43.2646259 L235.857443,63.8038635 C240.494198,68.5111394 245.236734,73.0950036 249.820598,77.908061 C237.902552,89.8261079 225.984505,101.738278 214.066458,113.644571 C207.754829,107.385834 201.496092,101.074205 195.202094,94.7978375 C189.630936,89.1737888 183.953996,83.690782 178.400468,78.0667332 C178.475635,77.7683475 178.627589,77.4948309 178.841224,77.2733721 C190.212734,65.8313419 201.513722,54.4598327 212.885231,43.2293654 C213.273097,42.8767604 213.572811,42.3654833 214.084088,42.1891808 Z M129.846768,42.3831135 C136.898867,49.4352123 143.970007,56.5063517 151.060187,63.5965318 L165.265934,77.8022795 L165.265934,77.8022795 C153.418408,89.6498054 141.565006,101.497331 129.705726,113.344857 C117.752419,101.332782 105.775605,89.3442145 93.7752832,77.3791536 L94.2689301,77.0794394 C105.857879,65.478737 117.452705,53.8839113 129.053407,42.2949623 C129.26497,41.9952481 129.652836,42.1362901 129.846768,42.3831135 Z M468.559072,41.9952481 L492.941703,66.3602493 C494.211081,67.7001481 495.621501,68.9166351 496.820357,70.3270549 L494.775249,70.3270549 L494.775249,70.3270549 L494.775249,73.4652388 L494.775249,73.4652388 L437.194862,73.4652388 L437.194862,73.4652388 C437.847182,72.5837265 438.658173,71.8432561 439.433904,71.049895 C449.14817,61.3708894 458.827175,51.6566234 468.559072,41.9952481 Z M45.2921043,42.4536345 C52.9260012,50.1580524 60.6656796,57.7919493 68.3524672,65.478737 C70.8207018,68.0174925 73.4123481,70.4152061 75.8100616,73.0244826 L17.1894907,73.0244826 L17.1894907,70.2917944 L17.1894907,70.2917944 L16.6782136,70.2917944 C17.1131075,69.7219024 17.5968302,69.1909873 18.1238938,68.7050721 L44.5163734,42.2597018 C44.7631969,41.9070969 45.0805413,42.2597018 45.2921043,42.4536345 Z M172.141731,2.84217094e-14 C184.095038,11.9533074 196.101236,23.8360938 208.036913,35.8951827 C202.747839,41.3781895 197.194311,46.7554148 191.799456,52.1855308 L172.212252,71.7374746 C172.055256,71.5654238 171.843371,71.4532495 171.612823,71.4201302 C170.237664,70.2212734 169.003547,68.8461141 167.698908,67.5767363 L136.281808,36.1772666 C135.982094,35.9657037 136.281808,35.6836197 136.42285,35.5073172 C145.755128,26.2220539 155.063898,16.9132835 164.349162,7.58100616 C166.993699,5.13040185 169.461933,2.52112531 172.018319,2.84217094e-14 L172.141731,2.84217094e-14 Z M256.696395,1.42108547e-14 C265.229434,8.32147653 273.603802,16.783995 282.08395,25.2641438 C285.451327,28.6667814 288.924486,31.9636376 292.203712,35.4544265 L256.255639,71.4377604 C255.782471,71.043487 255.329391,70.6257122 254.89811,70.1860129 C243.632382,59.0084363 232.472436,47.7427086 221.224338,36.5651321 C221.065666,36.3535691 220.64254,36.0891154 220.906994,35.7894012 C225.6319,31.0080782 230.387835,26.2352178 235.153361,21.4651782 L249.457274,7.15788024 C251.838909,4.77286044 254.217582,2.38713543 256.590613,1.42108547e-14 L256.696395,1.42108547e-14 Z M341.392101,2.84217094e-14 C351.53537,10.1550222 361.684515,20.2982909 371.839537,30.4298061 C373.602562,32.1928308 375.365587,33.8148135 376.952309,35.7188802 C365.157674,47.5135154 353.327778,59.2728901 341.586034,71.120416 C338.677043,68.4053579 335.961985,65.5139975 333.123515,62.7460487 L305.990565,35.5954685 C306.310881,34.9517523 306.775447,34.3906523 307.348094,33.9558555 L341.268689,2.84217094e-14 L341.392101,2.84217094e-14 Z" fill="#BBBCC1"/>
    <path d="M298.973727,28.5962605 C301.37144,30.8529321 303.645742,33.2506456 306.025826,35.5425777 L333.211666,62.622637 C336.050136,65.3905857 338.765194,68.2819462 341.674185,70.9970042 C353.415929,59.1494783 365.245825,47.3901036 377.04046,35.5954685 C379.261871,33.4093179 381.430392,31.1702765 383.669433,29.0017561 C398.47884,43.7935333 413.270617,58.6382012 428.132916,73.3770876 C431.165318,73.3770876 434.19772,73.3770876 437.230123,73.3770876 C456.429462,73.3770876 475.628801,73.3770876 494.810509,73.3770876 C494.810509,72.336903 494.810509,71.2790882 494.810509,70.2389036 C495.480459,70.2389036 496.168038,70.2389036 496.855618,70.2389036 C501.897869,70.2389036 506.940119,70.2389036 512,70.2389036 L512,86.1061258 C506.710926,86.1061258 501.421852,86.1061258 496.132778,86.1061258 L494.84577,86.1061258 L494.84577,83.3910678 L438.129266,83.3910678 C433.333838,83.3910678 428.538411,83.3910678 423.742984,83.3910678 C422.103371,81.7514548 420.463758,80.0942116 418.806515,78.4545987 L386.384491,46.0502049 C385.361937,45.0805413 384.445164,43.9698357 383.352088,43.0883234 C379.826039,46.5262215 376.29999,50.1404222 372.77394,53.5430598 C364.417203,61.8292759 356.130987,70.1683826 347.79188,78.4722289 L341.515513,84.7485968 L341.039496,85.259874 L340.722151,84.97779 L334.19896,78.4898592 L299.255811,43.4409283 C299.079508,43.2646259 298.779794,42.8943907 298.568231,43.2646259 C286.814733,55.0181238 275.061235,66.7716217 263.307737,78.5251197 C261.156847,80.6407493 259.023587,82.7740092 256.907958,84.9248993 C244.978157,96.8782067 233.030727,108.837391 221.065666,120.802452 C218.791364,123.041493 216.569953,125.315795 214.295651,127.537206 L207.596157,120.802452 L172.018319,85.2775042 L136.493371,120.802452 C134.289591,122.953342 132.156331,125.174753 129.93492,127.308013 C115.090252,112.392824 100.245584,97.5364026 85.4009159,82.7387487 C82.2098413,82.7387487 79.0187666,82.7387487 75.8276919,82.7387487 L17.1894907,82.7387487 C17.1894907,83.9199752 17.1894907,85.0835715 17.1894907,86.264798 C11.4596605,86.264798 5.72983024,86.264798 0,86.264798 L0,70.3975758 L14.7036259,70.3975758 C15.348588,70.4594435 15.9979909,70.4594435 16.6429531,70.3975758 L17.1542302,70.3975758 C17.2423815,71.3143487 17.1542302,72.1606005 17.1542302,73.1302641 L89.4382425,73.1302641 C90.8839227,74.5935746 92.3472332,76.0216246 93.7929135,77.4849351 C105.781481,89.449996 117.758296,101.438564 129.723357,113.450639 C141.582636,101.62662 153.436039,89.7790939 165.283565,77.908061 C167.399194,75.7748011 169.550084,73.694432 171.630453,71.5259116 C171.861001,71.559031 172.072886,71.6712052 172.229882,71.8432561 C174.274991,73.9412555 176.35536,75.9863641 178.418099,78.049103 C183.971626,83.6731518 189.648566,89.1561585 195.219724,94.7802073 C201.513722,101.056575 207.77246,107.368204 214.084088,113.626941 C226.002135,101.673634 237.914305,89.7262032 249.820598,77.7846493 L256.255639,71.4377604 L292.168451,35.5249475 C294.442753,33.2506456 296.752316,30.993974 298.973727,28.6667814 M298.973727,30.9763438 C295.870803,34.2203092 292.644468,37.3232327 289.488654,40.5319376 C264.336168,65.5903952 239.18956,90.68999 214.048828,115.830722 C199.94463,101.726525 185.840432,87.6223271 171.736235,73.5181295 C157.761326,87.5518061 143.768787,101.591359 129.758617,115.636789 C125.403946,111.3879 121.155057,107.033229 116.835646,102.749079 L94.2865604,80.2528839 C92.3824937,78.3840777 90.5665783,76.4447505 88.6096209,74.6640956 C64.8264178,74.6640956 41.0079543,74.6640956 17.2247512,74.6640956 C17.2247512,76.832616 17.2247512,79.0011363 17.2247512,81.1696567 C39.7385765,81.1696567 62.2524018,81.1696567 84.7662271,81.1696567 C85.2422437,81.1696567 85.8416721,80.9933542 86.2295376,81.3459592 L129.97018,125.033711 C143.909829,111.047048 157.872984,97.0838929 171.859647,83.1442443 L172.1241,83.1442443 L196.929858,107.879481 C202.677318,113.662202 208.51293,119.374402 214.189869,125.210013 C214.67501,124.868966 215.118758,124.472551 215.512138,124.028787 C243.285654,96.2670248 271.059169,68.4993859 298.832685,40.7258703 C312.936882,54.8300678 327.04108,68.9342653 341.145277,83.0384629 C344.971041,79.0363968 349.008367,75.2282635 352.904652,71.2790882 L383.228677,40.9550635 C383.810475,40.7611308 384.127819,41.6955339 384.603836,41.9776179 C397.897042,55.2590705 411.190248,68.5463999 424.483454,81.8396061 C447.919929,81.8396061 471.356404,81.8396061 494.792879,81.8396061 L494.792879,74.9638098 L427.251403,74.9638098 C413.887676,61.4766709 400.382907,48.130574 386.966289,34.7139561 C385.785062,33.6032506 384.727248,32.3338728 383.44024,31.3113185 C382.93019,31.9374245 382.376386,32.5265767 381.782996,33.0743432 C368.401639,46.5085913 354.949761,59.8723184 341.603664,73.3065666 C341.190222,73.0870296 340.824632,72.787366 340.528219,72.4250542 L308.035674,39.8972487 C305.003271,36.917737 302.05902,33.8324438 298.956097,30.8881926 L298.973727,30.9763438 Z" fill="#221E1F"/>
    <path d="M36.1596364,220.519128 L36.1596364,280.461968 L36.1596364,280.461968 L15.0033401,280.461968 C15.0268471,260.457514 15.0268471,240.476568 15.0033401,220.519128 L36.1596364,220.519128 Z M352.0584,220.519128 L352.0584,235.610619 L352.0584,235.610619 L333.299817,235.610619 L333.299817,280.409077 L333.299817,280.409077 L312.302193,280.409077 L312.302193,235.610619 L312.302193,235.610619 L293.561241,235.610619 C293.543611,230.568369 293.561241,225.543748 293.543611,220.519128 L352.0584,220.519128 Z M190.177473,220.501498 L190.177473,233.230536 L190.177473,233.230536 L166.323749,233.230536 L166.323749,233.230536 L166.323749,243.702903 L166.323749,243.702903 L188.202886,243.702903 L188.202886,243.702903 L188.202886,256.34379 L166.341379,256.34379 L166.341379,267.715299 L166.341379,267.715299 L190.600599,267.715299 L190.600599,267.715299 L190.600599,280.356186 L190.600599,280.356186 L145.255604,280.356186 C145.243851,260.422254 145.243851,240.470691 145.255604,220.501498 L190.177473,220.501498 Z M500.875314,220.501498 L500.875314,233.230536 L500.875314,233.230536 L478.149926,233.230536 L478.149926,233.230536 L478.149926,243.984987 L478.149926,243.984987 L499.535415,243.984987 L499.535415,256.696395 L478.149926,256.696395 L478.149926,256.696395 L478.149926,280.356186 L478.149926,280.356186 L457.064151,280.356186 L457.064151,220.501498 L500.875314,220.501498 Z" fill="#221E1F"/>
    <path d="M298.956097,30.8881926 C302.05902,33.8148135 305.003271,36.9001067 308.035674,39.8796185 L340.563479,72.4250542 C340.859893,72.787366 341.225482,73.0870296 341.638924,73.3065666 C354.985021,59.8723184 368.4369,46.5085913 381.818257,33.0743432 C382.411647,32.5265767 382.96545,31.9374245 383.4755,31.3113185 C384.727248,32.3338728 385.785062,33.6032506 387.00155,34.7139561 C400.418167,48.130574 413.922937,61.4766709 427.286664,74.9638098 L494.792879,74.9638098 L494.792879,81.7161943 C471.356404,81.7161943 447.919929,81.7161943 424.483454,81.7161943 C411.166741,68.4347417 397.873535,55.1474123 384.603836,41.8542061 C384.127819,41.5721222 383.810475,40.6377191 383.228677,40.8316518 L352.904652,71.1556765 C349.008367,75.1048518 344.971041,78.9129851 341.145277,82.9150511 C327.04108,68.8108536 312.936882,54.7066561 298.832685,40.6024586 C271.023909,68.3524672 243.250393,96.1201061 215.512138,123.905375 C215.118758,124.349139 214.67501,124.745555 214.189869,125.086602 C208.51293,119.25099 202.677318,113.53879 196.929858,107.756069 L172.1241,83.0737234 L171.859647,83.0737234 C157.896491,97.0721394 143.933336,111.058802 129.97018,125.033711 L86.1942771,81.2754382 C85.8064116,80.9228332 85.2069832,81.1696567 84.7309666,81.0991357 C62.2171413,81.0991357 39.703316,81.0991357 17.1894907,81.0991357 C17.1894907,78.9306153 17.1894907,76.762095 17.1894907,74.5935746 C40.990324,74.5935746 64.7911573,74.5935746 88.5743604,74.5935746 C90.5313178,76.3565993 92.3472332,78.3135567 94.2512999,80.1823629 L116.835646,102.749079 C121.155057,107.033229 125.403946,111.3879 129.758617,115.636789 C143.78054,101.603113 157.802463,87.5870666 171.824386,73.5886505 C185.928584,87.692848 200.032781,101.797046 214.136979,115.901243 C239.324725,90.8192785 264.465457,65.6961767 289.559175,40.5319376 C292.662098,37.2527117 295.853173,34.1497882 298.956097,30.8881926 Z" fill="#FDD34F"/>
  </g>
</svg>

<svg width="512" height="281" xmlns="http://www.w3.org/2000/svg" preserveAspectRatio="xMidYMid"><path d="M256.96 84.907c1.764 1.446 3.227 3.174 4.867 4.725l30.835 30.8c-11.977 12-23.965 23.99-35.966 35.966-3.279-3.156-6.435-6.435-9.661-9.609-8.656-8.674-17.33-17.312-25.97-25.987a25838.93 25838.93 0 0 0 35.896-35.895Zm84.626-.158c4.813 4.866 9.732 9.626 14.563 14.474l21.156 21.156c-1.552 1.887-3.526 3.42-5.183 5.184l-21.809 21.826c-3.032 2.962-5.959 6.065-9.044 8.956a28593.42 28593.42 0 0 1-26.763-26.727c-3.068-3.033-6.047-6.153-9.185-9.115 1.622-1.904 3.526-3.526 5.289-5.29 10.084-10.049 20.116-20.15 30.218-30.182l.282.229.476-.511Zm-169.568.529 35.578 35.524a14233.05 14233.05 0 0 1-29.777 29.796c-1.957 1.886-3.79 3.913-5.8 5.73-9.662-9.574-19.235-19.235-28.861-28.826-2.116-2.221-4.531-4.372-6.665-6.7l35.525-35.524Zm127.238-41.872 34.943 35.084c-11.742 11.883-23.642 23.624-35.42 35.49a41.995 41.995 0 0 1-3.137-2.998L268.35 83.585c-1.657-1.763-3.526-3.28-4.99-5.095a99504.188 99504.188 0 0 0 35.208-35.26c.212-.37.512 0 .688.176Zm84.167-.318c1.093.882 2.01 1.993 3.032 2.962l32.352 32.44a15543.131 15543.131 0 0 1-34.08 34.114c-.442.52-.96.972-1.534 1.34-1.939-2.08-4.002-4.037-5.994-6.065l-5.866-5.874-11.745-11.732c-3.915-3.912-7.826-7.83-11.726-11.766a4169.331 4169.331 0 0 1 24.982-24.964c3.527-3.526 7.053-7.052 10.579-10.455ZM75.81 82.721c-.242.357-.52.687-.829.987l-23.29 23.308c-2.326 2.292-4.583 4.69-7.051 6.91-8.463-8.532-16.996-16.995-25.476-25.51a19.746 19.746 0 0 1-2.045-2.169c.106-1.181.07-2.345.07-3.526H75.81Zm418.948.67v2.839h1.287a15.497 15.497 0 0 1-1.94 2.08l-16.696 16.696c-2.997 2.944-5.888 6.012-8.973 8.815-8.968-8.992-17.96-17.983-26.975-26.974a37.2 37.2 0 0 1-3.332-3.456h56.629ZM214.084 42.19c.458.295.868.658 1.217 1.076l20.556 20.539c4.637 4.707 9.38 9.291 13.964 14.104-11.918 11.918-23.836 23.83-35.755 35.737-6.311-6.26-12.57-12.57-18.864-18.847-5.571-5.624-11.248-11.107-16.802-16.731.076-.299.228-.572.441-.794 11.372-11.442 22.673-22.813 34.044-34.044.388-.352.688-.864 1.2-1.04Zm-84.237.194 21.213 21.214 14.206 14.205c-11.848 11.848-23.701 23.695-35.56 35.543-11.954-12.012-23.93-24-35.93-35.966l.493-.3c11.589-11.6 23.184-23.195 34.784-34.784.212-.3.6-.159.794.088Zm338.712-.388 24.383 24.365c1.27 1.34 2.68 2.557 3.878 3.967h-2.045v3.138h-57.58c.652-.881 1.463-1.622 2.239-2.415 9.714-9.68 19.393-19.393 29.125-29.055Zm-423.267.459c7.634 7.704 15.374 15.338 23.06 23.025 2.469 2.538 5.06 4.936 7.458 7.545H17.19v-2.732h-.512c.435-.57.919-1.101 1.446-1.587L44.516 42.26c.247-.353.565 0 .776.194ZM172.142 0c11.953 11.953 23.96 23.836 35.895 35.895-5.29 5.483-10.843 10.86-16.238 16.29l-19.587 19.552a1.005 1.005 0 0 0-.6-.317c-1.374-1.199-2.608-2.574-3.913-3.843l-31.417-31.4c-.3-.211 0-.493.14-.67A7819.774 7819.774 0 0 0 164.35 7.581c2.645-2.45 5.113-5.06 7.67-7.581h.123Zm84.554 0c8.533 8.321 16.908 16.784 25.388 25.264 3.367 3.403 6.84 6.7 10.12 10.19l-35.948 35.984a18.406 18.406 0 0 1-1.358-1.252c-11.266-11.178-22.426-22.443-33.674-33.62-.158-.212-.581-.477-.317-.777 4.725-4.78 9.48-9.554 14.246-14.324l14.304-14.307c2.382-2.385 4.76-4.77 7.134-7.158h.105Zm84.696 0a24771.345 24771.345 0 0 0 30.448 30.43c1.763 1.763 3.526 3.385 5.112 5.289-11.794 11.795-23.624 23.554-35.366 35.401-2.909-2.715-5.624-5.606-8.462-8.374l-27.133-27.15a4.672 4.672 0 0 1 1.357-1.64L341.268 0h.124Z" fill="#BBBCC1"/><path d="M298.974 28.596c2.397 2.257 4.672 4.655 7.052 6.947l27.186 27.08c2.838 2.768 5.553 5.659 8.462 8.374 11.742-11.848 23.572-23.607 35.366-35.402 2.222-2.186 4.39-4.425 6.63-6.593 14.809 14.792 29.6 29.636 44.463 44.375H494.81V70.24H512v15.867h-17.154v-2.715h-71.103c-1.64-1.64-3.28-3.297-4.936-4.936L386.384 46.05c-1.022-.97-1.939-2.08-3.032-2.962-3.526 3.438-7.052 7.052-10.578 10.455-8.357 8.286-16.643 16.625-24.982 24.93l-6.276 6.276-.477.51-.317-.281-6.523-6.488-34.943-35.05c-.176-.175-.476-.546-.688-.175l-35.26 35.26a547.57 547.57 0 0 0-6.4 6.4 51526.37 51526.37 0 0 1-35.842 35.877c-2.275 2.24-4.496 4.514-6.77 6.735l-6.7-6.735-35.578-35.524-35.525 35.524c-2.203 2.151-4.337 4.373-6.558 6.506A15927.773 15927.773 0 0 0 85.4 82.738H17.189v3.527H0V70.398h14.704c.645.061 1.294.061 1.939 0h.511c.088.916 0 1.763 0 2.732h72.284c1.446 1.464 2.91 2.892 4.355 4.355a17279.468 17279.468 0 0 1 35.93 35.966 20274.014 20274.014 0 0 0 35.56-35.543c2.116-2.133 4.267-4.214 6.347-6.382.231.033.443.145.6.317 2.045 2.098 4.125 4.143 6.188 6.206 5.554 5.624 11.23 11.107 16.802 16.731 6.294 6.277 12.552 12.588 18.864 18.847l35.737-35.842 6.435-6.347 35.912-35.913c2.275-2.274 4.584-4.531 6.806-6.858m0 2.31c-3.103 3.243-6.33 6.346-9.485 9.555a56918.005 56918.005 0 0 0-75.44 75.299l-42.313-42.313a70673.482 70673.482 0 0 1-41.977 42.119c-4.355-4.25-8.604-8.604-12.923-12.888l-22.55-22.496c-1.904-1.869-3.72-3.808-5.676-5.589H17.225v6.506h67.541c.476 0 1.076-.177 1.464.176l43.74 43.688c13.94-13.987 27.903-27.95 41.89-41.89h.264l24.806 24.735c5.747 5.783 11.583 11.495 17.26 17.331a7.634 7.634 0 0 0 1.322-1.181 556706.9 556706.9 0 0 0 83.32-83.303l42.313 42.312c3.826-4.002 7.863-7.81 11.76-11.759l30.324-30.324c.581-.194.899.74 1.375 1.023 13.293 13.281 26.586 26.568 39.88 39.862h70.309v-6.876H427.25c-13.363-13.487-26.868-26.833-40.285-40.25-1.18-1.11-2.239-2.38-3.526-3.403a17.084 17.084 0 0 1-1.657 1.763c-13.381 13.435-26.833 26.798-40.18 40.233a3.526 3.526 0 0 1-1.075-.882l-32.492-32.528c-3.033-2.98-5.977-6.065-9.08-9.009l.018.088ZM36.16 220.52v59.942H15.003c.024-20.004.024-39.985 0-59.943H36.16Zm315.898 0v15.09H333.3v44.8h-20.998v-44.8h-18.74c-.018-5.042 0-10.066-.018-15.09h58.514Zm-161.88-.019v12.73h-23.854v10.472h21.879v12.64H166.34v11.372h24.26v12.641h-45.345c-.012-19.934-.012-39.885 0-59.855h44.921Zm310.697 0v12.73H478.15v10.754h21.385v12.711H478.15v23.66h-21.086v-59.855h43.811Z" fill="#221E1F"/><path d="M298.956 30.888c3.103 2.927 6.047 6.012 9.08 8.992l32.527 32.545c.297.362.662.662 1.076.882 13.346-13.435 26.798-26.798 40.18-40.233a17.084 17.084 0 0 0 1.656-1.763c1.252 1.023 2.31 2.292 3.527 3.403 13.416 13.417 26.92 26.763 40.285 40.25h67.506v6.752h-70.31a25506.653 25506.653 0 0 1-39.88-39.862c-.475-.282-.793-1.216-1.374-1.022l-30.324 30.324c-3.897 3.949-7.934 7.757-11.76 11.76l-42.312-42.314a61864.652 61864.652 0 0 0-83.32 83.303c-.394.444-.838.84-1.323 1.182-5.677-5.836-11.513-11.548-17.26-17.33l-24.806-24.683h-.264a70555.829 70555.829 0 0 1-41.89 41.96L86.194 81.275c-.388-.352-.987-.105-1.463-.176H17.189v-6.505h71.385c1.957 1.763 3.773 3.72 5.677 5.588l22.585 22.567c4.32 4.284 8.568 8.639 12.923 12.888a47285.425 47285.425 0 0 1 42.065-42.048l42.313 42.312a30399.702 30399.702 0 0 0 75.422-75.37c3.103-3.278 6.294-6.381 9.397-9.643Z" fill="#FDD34F"/></svg>
